X:1
T:Polka efter Olof Brolin
R:Polka
O:Andrarum, Skåne
N:Låten finns på Skånes Musiksamlingar i Lund i en inspelning med Henry Olsson och Alfred Gunnarsson från Skåne Tranås. Denna not är en grovskiss snarare än en transkribering...
M:2/4
L:1/8
K:C
|: GG E>G | AA D2 | dd B/G/A/B/ | cc G>E |
 GG E>G | AA D2 | dd B/G/A/B/ | cc c2:|
|: e2 d2 | c2 A2 | Gf/f/ ff | ec e2 |
e2 d2 | c2 A2 | GB/B/ BA/B/ | dc c2 :|

